app/dist/common/images/affinity-bancshares.svg

<svg height="18" viewBox="0 0 18 18" width="18" xmlns="http://www.w3.org/2000/svg"><path d="m0 0h18v18h-18z" fill="#122c3a"/><path d="m3 12.68v.32h2v-.32h-.73l2.42-6.18 2.42 6.17h-1.11v.33h3.28c.95 0 2.72-.4 2.72-2.14 0-1.4-1.26-2.04-1.89-2.18 1.22-.36 1.5-1.32 1.49-1.76.04-1.45-1.53-1.9-2.32-1.92h-3.28v.32h1v1.48l1 2.78v-4.26h.76c.89 0 1.77.21 1.87 1.6.07 1.11-.93 1.76-1.35 1.95.25.02 1.66.04 1.72 1.99.05 1.56-1.23 1.82-1.72 1.82h-.94l-3.04-7.68h-.4l-2.97 7.68z" fill="#fff"/></svg>

<!-- by TradingView --><svg width="18" height="18" viewBox="0 0 18 18" xmlns="http://www.w3.org/2000/svg"><path fill="#122C3A" d="M0 0h18v18H0z"/><path d="M3 12.68V13h2v-.32h-.73L6.69 6.5l2.42 6.17H8V13h3.28c.95 0 2.72-.4 2.72-2.14 0-1.4-1.26-2.04-1.89-2.18 1.22-.36 1.5-1.32 1.49-1.76.04-1.45-1.53-1.9-2.32-1.92H8v.32h1V6.8l1 2.78V5.32h.76c.89 0 1.77.21 1.87 1.6.07 1.11-.93 1.76-1.35 1.95.25.02 1.66.04 1.72 1.99.05 1.56-1.23 1.82-1.72 1.82h-.94L7.3 5H6.9l-2.97 7.68H3Z" fill="#fff"/></svg>
